X:1502
T:Allexander
R:Jig
C:Trad. via W Clarke 1858
O:England, Suffolk, Feltwell
Z:Paul Hardy's Possible Tunebook 2015 (see www.paulhardy.net). Creative Commons cc by-nc-sa licenced.
M:6/8
L:1/8
Q:3/8=110
K:G
d|"G"BcB d2d|"C"cBA"G"B2G|GFG"D"A2G|"G"BcB"D"A2A|
"G"BcBd2d|"Am"cBA"G"B2G|GFG"D"A2G|FEF"G"G2:|
|:A|"D"ABA AFd|Afd Aaf|"A7"ge^c "D"dfa|"A7"agf e2A|
"D"ABA AFd|Afd Aaf|"A7"ge^c "D"dfa|"A7"ge^c "D"d2:|
|:B|"C"cdc "D"aga|"G"BcB gfg|"C"cdc "D"aga|"G"Bgf gdB|
"C"cdc "D"aga|"G"BcB gfg|"C"cdc "D"aga|"D7"dgf "G"g2:|

